X: 436
T: Boğaziçi Şen Gönüller Yatağı
C: Alâeddin Yavaşca
O: Turkey
F: http://compmusic.upf.edu/node/140
N: hicaz--sarki--duyek--bogazici--alaeddin_yavasca
N: makam= hicaz
N: form= sarki
N: usul= duyek = 8/4
M: 8/4
L: 1/16
K: C _7/8B ^f ^c 
Q: 1/4=156
%%MIDI tuningsystem comma53
G4 A4 B4 d4  | c12 BA G2  | d4 zd dd g=f ed cB AB  | 
w:  ARANAĞME  |   |   | 
c4 zc cc =fe dc BA ^GA  | B4 z2 AB c4 zA Bc  | 
w:   |   | 
d8 z2 =f2 e2 d2  | c3B A2 c2 B8  | B3A ^G2 BA A8  | \
w:   |   |   | 
A2 Bc B2 A2 e8  | 
w:  Bo ğaz_ *  *  i çi   | 
z2 e4 g2 =f3e d4  | c3/2B/ c2 d3/2c/ d2 e8  | \
w:  şen  gö nül *  ler   |  ya *  *  ta *  *  ğı    | 
d4 d2 d2 g8  | f3/2e/ f2 g3/2f/ g2 a4 g4  | 
w:  Her  bu ca ğı   |  â *  *  şık *  *  la rın   | 
f3/2e/ f2 g4 a4 z4  | a2 g2 =f2 e2 d2 {e}dc d4  | \
w:  o *  *  ta ğı    |  Ya maç *  la rı   | 
z2 e4 g2 =f3e d2 c2  | 
w:  san ki  cen *  ne  | 
B2 c2 d2 {e}dc c8  | c2 d2 c2 B2 A8  | \
w:  tin  *  ba *  *  *  ğı    |  Meh tâ *  bı  hoş   | 
A2 d2 c2 d2 e8  | =f3/2e/ f2 e2 d2 f8  | 
w:  gü ne *  şi  hoş   |  gü *  *  nü  *  hoş    | 
g2 =f2 e2 d2 c8  | z2 A4 d2 c2 B2 A2 ^G2  | \
w:  Bo ğaz_ *  i çi   |  her ke si  *  e  | 
=F4 ^G4 A8  | G4 A4 B4 d4  | c12 BA G2  | 
w:  der  sar hoş    |  ARANAĞME  |   | 
d4 zd dd g=f ed cB AB  | c4 zc cc =fe dc BA ^GA  | 
w:   |   | 
B4 z2 AB c4 zA Bc  | d8 z2 =f2 e2 d2  | \
w:   |   | 
c3B A2 c2 B8  | B3A ^G2 BA A8  | 
w:   |   | 
A2 Bc B2 A2 e8  | z2 e4 g2 =f3e d4  | \
w:  Pı rıl *  *  tı lar   |  oy na şır *  ken   | 
c3/2B/ c2 d3/2c/ d2 e8  | z2 d2 d2 d2 g8  | 
w:  su *  *  lar *  *  da    |  Ö tü şür ler   | 
f3/2e/ f2 g3/2f/ g2 a4 g4  | f3/2e/ f2 g4 a4 z4  | \
w:  mar *  *  tı *  *  lar  kuy  |  tu *  *  lar da    | 
a2 g2 =f2 e2 d2 {e}dc d4  | 
w:  Ta rab *  ya da   | 
e2 g6 =f3e d2 c2  | B2 c2 d2 {e}dc c8  | \
w:  Be bek te  *  Üs  |  kü *  dar *  *  *  da    | 
c2 d2 c2 B2 A8  | A2 d2 c2 d2 e8  | 
w:  Meh tâ *  bı  hoş   |  gü ne *  şi  hoş   | 
=f3/2e/ f2 e2 d2 f8  | g2 =f2 e2 d2 c8  | \
w:  gü *  *  nü  *  hoş    |  Bo ğaz_ *  i çi   | 
z2 A4 d2 c2 B2 A2 ^G2  | =F4 ^G4 A8  | 
w:  her ke si  *  e  |  der  sar hoş    | 
|


